**kern	**kern	**dynam
*part1	*part1	*part1
*staff2	*staff1	*
*I"Piano	*	*
*clefF4	*clefG2	*
*k[b-e-a-]	*k[b-e-a-]	*
=1	=1	=1
*^	*^	*
(4D	[4.FF	(8dL	4B-	.
.	.	8e-	.	.
8E-	.	8cJ	8An	.
=	=	=	=	=
4.D)	4.FF]	8dL	4.B-	.
.	.	8g	.	.
.	.	8fJ)	.	.
=	=	=	=	=
(4E-	[4.FF	(8e-L	4.A-X 4.c	mf
.	.	8f	.	.
8F	.	8dJ	.	.
=	=	=	=	=
4.E-)	4.FF]	8e-L	4.A- 4.c	.
.	.	8a-X	.	.
.	.	8gJ)	.	.
=	=	=	=	=
!	!	!LO:TX:b:i:t=cresc.	!	!
(4D	4.FF	(8fL	4.A- 4.c	.
.	.	8g	.	.
8C	.	8e-J	.	.
=	=	=	=	=
8DL	4.BBB-	8fL	4.A- 4.c	.
8C	.	8b-	.	.
8DJ)	.	8a-J)	.	.
=	=	=	=	=
!	!	!LO:TX:a:i:t=legato	!	!
8E-L	4.EE-	8e-L 8g	4.B-	.
8D	.	8f 8a-	.	.
8CJ	.	8gJ 8b-	.	.
*v	*v	*	*	*
*	*v	*v	*
=	=	=
*-	*-	*-
!!!system-decoration: {(s1,s2)}
